X: 7022
T: Chief's
R: jig
M: 6/8
K: Ddorian
|:d2e d^cA|d2e d^cA|GEE =cEE|GAB cde|
d2e d^cA|d2e d^cA|GEE =cdc|AGE D2A:|
|:d2e fed|f2a agf|e2d c2A|G2A c2A|
d2e fed|f2a agf|e3 gab|c'2b age:|

